X:1
T:The Lark in the Morning
M:2/4
L:1/8
K:F
 A| A3/2- G/2 A3/2 =B/2| c2 c3/2 A/2| G3/2 A/2 G3/2 E/2| C2 C3.99999962500005/5.99999925000009 D3.99999962500005/5.99999925000009 E3.99999962500005/5.99999925000009|\
 F3/2- E/2 F3/2 G/2| A3/2- c/2 A3/2 G/2| F3/2 D/2 E3/2 C/2| D2 z d|\
 d3/2 D/2 D3/2 D/2| d2 c3/2 A/2| G3/2 A/2 G3/2 E/2| C2 D3/2 E/2| F3/2- E/2 F3/2 G/2|\
 A3/2 c/2 A3/2 G/2| F3/2 D/2 E3/2 C/2| D2 z||
